X: 7160
T: Church Hill
R: jig
M: 6/8
K: Dmixolydian
cBc A2 D|FAD GED|cBc ABc|dcA GED:|
EDE c2 E|c2 E GED|EDE c2 e|dcA GED|
EDE c2 E|d2 E c2 E|EDE c2 e|dcA GED||
A2 G FDF|FDF GED|A2 G FED|ABc GED:|

